X:38
T:Summer's Jaunt
C: Taz Tarry  30 July 1986
M:C|
L:1/8
K:D
Q:1/4=120
F|:D2 D>F D2 D>F|(3EFG A>B A2 F2|E2 E>G E2 E>G|(3FGF A>F D2 D2:|
A2 A>d B2 B>d|(3ABA A>F E2 D2|A2 A>d B2 d2|(3efg e>c d2 d2:|

